Numix/64/apps/ppa.svg

<?xml version="1.0" encoding="UTF-8" standalone="no"?>
<svg
   xmlns:dc="http://purl.org/dc/elements/1.1/"
   xmlns:cc="http://creativecommons.org/ns#"
   xmlns:rdf="http://www.w3.org/1999/02/22-rdf-syntax-ns#"
   xmlns:svg="http://www.w3.org/2000/svg"
   xmlns="http://www.w3.org/2000/svg"
   xmlns:sodipodi="http://sodipodi.sourceforge.net/DTD/sodipodi-0.dtd"
   xmlns:inkscape="http://www.inkscape.org/namespaces/inkscape"
   viewBox="0 0 64 64"
   id="svg2"
   version="1.1"
   inkscape:version="0.91 r"
   sodipodi:docname="ppa.svg"
   width="64"
   height="64">
  <metadata
     id="metadata85">
    <rdf:RDF>
      <cc:Work
         rdf:about="">
        <dc:format>image/svg+xml</dc:format>
        <dc:type
           rdf:resource="http://purl.org/dc/dcmitype/StillImage" />
        <dc:title></dc:title>
      </cc:Work>
    </rdf:RDF>
  </metadata>
  <sodipodi:namedview
     pagecolor="#ffffff"
     bordercolor="#666666"
     borderopacity="1"
     objecttolerance="10"
     gridtolerance="10"
     guidetolerance="10"
     inkscape:pageopacity="0"
     inkscape:pageshadow="2"
     inkscape:window-width="1920"
     inkscape:window-height="1056"
     id="namedview83"
     showgrid="true"
     inkscape:zoom="9.8333335"
     inkscape:cx="23.793416"
     inkscape:cy="28.249722"
     inkscape:window-x="0"
     inkscape:window-y="24"
     inkscape:window-maximized="1"
     inkscape:current-layer="svg2">
    <inkscape:grid
       type="xygrid"
       id="grid4213" />
  </sodipodi:namedview>
  <defs
     id="defs4">
    <linearGradient
       id="linearGradient3764"
       x1="1"
       x2="47"
       gradientUnits="userSpaceOnUse"
       gradientTransform="matrix(0,-1,1,0,-1.5e-6,47.999998)">
      <stop
         stop-color="#e4e4e4"
         stop-opacity="1"
         id="stop7" />
      <stop
         offset="1"
         stop-color="#eee"
         stop-opacity="1"
         id="stop9" />
    </linearGradient>
    <clipPath
       id="clipPath-049320422">
      <g
         transform="translate(0,-1004.3622)"
         id="g12">
        <path
           d="m -24,13 c 0,1.105 -0.672,2 -1.5,2 -0.828,0 -1.5,-0.895 -1.5,-2 0,-1.105 0.672,-2 1.5,-2 0.828,0 1.5,0.895 1.5,2 z"
           transform="matrix(15.333333,0,0,11.5,414.99999,878.8622)"
           id="path14"
           inkscape:connector-curvature="0"
           style="fill:#1890d0" />
      </g>
    </clipPath>
    <clipPath
       id="clipPath-054510414">
      <g
         transform="translate(0,-1004.3622)"
         id="g17">
        <path
           d="m -24,13 c 0,1.105 -0.672,2 -1.5,2 -0.828,0 -1.5,-0.895 -1.5,-2 0,-1.105 0.672,-2 1.5,-2 0.828,0 1.5,0.895 1.5,2 z"
           transform="matrix(15.333333,0,0,11.5,414.99999,878.8622)"
           id="path19"
           inkscape:connector-curvature="0"
           style="fill:#1890d0" />
      </g>
    </clipPath>
  </defs>
  <g
     id="g33"
     transform="matrix(1.5,0,0,1.5,-4.5,-4.2451905)" />
  <path
     style="fill:#cf8c3b;fill-opacity:1;fill-rule:nonzero;stroke:none"
     inkscape:connector-curvature="0"
     id="path71"
     d="M 56,20.5 46,25.714285 46,38.285714 56,43.5 Z"
     sodipodi:nodetypes="ccccc" />
  <path
     sodipodi:type="star"
     style="opacity:1;fill:#f8c100;fill-opacity:1;fill-rule:nonzero;stroke:none;stroke-width:2;stroke-linecap:butt;stroke-linejoin:miter;stroke-miterlimit:4;stroke-dasharray:none;stroke-dashoffset:0;stroke-opacity:1"
     id="path4241"
     sodipodi:sides="6"
     sodipodi:cx="32.000004"
     sodipodi:cy="31.999998"
     sodipodi:r1="12.701707"
     sodipodi:r2="10.999999"
     sodipodi:arg1="1.5707963"
     sodipodi:arg2="2.0943951"
     inkscape:flatsided="true"
     inkscape:rounded="0"
     inkscape:randomized="0"
     d="m 32.000004,44.701705 -11.000001,-6.350853 0,-12.701707 11,-6.350854 11.000001,6.350853 1e-6,12.701707 z" />
  <path
     sodipodi:nodetypes="ccccc"
     d="M 8,20.5 18,25.714285 18,38.285714 8,43.5 Z"
     id="path4150"
     inkscape:connector-curvature="0"
     style="fill:#363dbe;fill-opacity:1;fill-rule:nonzero;stroke:none" />
  <path
     sodipodi:nodetypes="ccccc"
     d="M 53.959292,47.03461 44.443589,40.981498 33.556412,47.267213 34.040708,58.53461 Z"
     id="path4152"
     inkscape:connector-curvature="0"
     style="fill:#9d2c34;fill-opacity:1;fill-rule:nonzero;stroke:none" />
  <path
     style="fill:#3695ba;fill-opacity:1;fill-rule:nonzero;stroke:none"
     inkscape:connector-curvature="0"
     id="path4154"
     d="M 29.959292,5.4653903 30.443589,16.732787 19.556412,23.018501 10.040708,16.96539 Z"
     sodipodi:nodetypes="ccccc" />
  <path
     style="fill:#b93780;fill-opacity:1;fill-rule:nonzero;stroke:none"
     inkscape:connector-curvature="0"
     id="path4156"
     d="M 29.959292,58.53461 30.443589,47.267213 19.556412,40.981499 10.040708,47.03461 Z"
     sodipodi:nodetypes="ccccc" />
  <path
     sodipodi:nodetypes="ccccc"
     d="M 53.959292,16.96539 44.443589,23.018502 33.556412,16.732787 34.040708,5.4653904 Z"
     id="path4158"
     inkscape:connector-curvature="0"
     style="fill:#8eb335;fill-opacity:1;fill-rule:nonzero;stroke:none" />
</svg>

<svg xmlns="http://www.w3.org/2000/svg" viewBox="0 0 64 64">
 <path d="m 56 20.5 -10 5.214 0 12.571 10 5.214" style="fill:#cf8c3b;fill-opacity:1;stroke:none;fill-rule:nonzero"/>
 <path d="m 32 44.702 -11 -6.351 0 -12.702 11 -6.351 11 6.351 0 12.702 z" style="fill:#f8c100;opacity:1;fill-opacity:1;stroke:none;fill-rule:nonzero"/>
 <path d="m 8 20.5 10 5.214 0 12.571 -10 5.214" style="fill:#363dbe;fill-opacity:1;stroke:none;fill-rule:nonzero"/>
 <path d="m 53.959 47.03 -9.516 -6.05 -10.887 6.286 0.484 11.267" style="fill:#9d2c34;fill-opacity:1;stroke:none;fill-rule:nonzero"/>
 <path d="m 29.959 5.465 0.484 11.267 -10.887 6.286 -9.516 -6.05" style="fill:#3695ba;fill-opacity:1;stroke:none;fill-rule:nonzero"/>
 <path d="m 29.959 58.53 0.484 -11.267 -10.887 -6.286 -9.516 6.05" style="fill:#b93780;fill-opacity:1;stroke:none;fill-rule:nonzero"/>
 <path d="m 53.959 16.965 -9.516 6.05 -10.887 -6.286 0.484 -11.267" style="fill:#8eb335;fill-opacity:1;stroke:none;fill-rule:nonzero"/>
</svg>
